src/icon/animals/ox.svg

<svg enable-background="new 0 0 24 24" viewBox="0 0 24 24" xmlns="http://www.w3.org/2000/svg"><path d="m22 14c-1.3 2.7-3.1 2.7-4 2-1.5-1.2-1-4.1 0-4 3.6.5 4-2 4-2-1.6-1.6-4-1-4-1v-2c4-1.4 4-5 4-5-5 0-6 3-6 3-1-.6-2.2-1-4-1s-3 .3-4 1c0 0-1-3-6-3 0 0 0 3.6 4 5v2s-2.4-.6-4 1c0 0 .4 2.5 4 2 1-.1 1.5 2.8 0 4-.9.7-2.7.7-4-2 0 0-.3 4.3 4 4 0 0 0 4 6 4 6 0 6-4 6-4 4.2.3 4-4 4-4zm-14-4c0-.6.4-1 1-1s1 .4 1 1-.4 1-1 1c-.5 0-1-.4-1-1zm2 10c-.6 0-1-.4-1-1s.4-1 1-1 1 .4 1 1-.4 1-1 1zm4 0c-.6 0-1-.4-1-1s.4-1 1-1 1 .4 1 1-.4 1-1 1zm1-9c-.6 0-1-.4-1-1s.4-1 1-1 1 .4 1 1-.4 1-1 1z"/></svg>

<?xml version="1.0" encoding="utf-8"?>
<!-- Generator: Adobe Illustrator 18.0.0, SVG Export Plug-In . SVG Version: 6.00 Build 0)  -->
<!DOCTYPE svg PUBLIC "-//W3C//DTD SVG 1.1//EN" "http://www.w3.org/Graphics/SVG/1.1/DTD/svg11.dtd">
<svg version="1.1" id="Layer_1" xmlns="http://www.w3.org/2000/svg" xmlns:xlink="http://www.w3.org/1999/xlink" x="0px" y="0px"
	 viewBox="0 0 24 24" enable-background="new 0 0 24 24" xml:space="preserve">
<path d="M22,14c-1.3,2.7-3.1,2.7-4,2c-1.5-1.2-1-4.1,0-4c3.6,0.5,4-2,4-2c-1.6-1.6-4-1-4-1V7c4-1.4,4-5,4-5c-5,0-6,3-6,3
	c-1-0.6-2.2-1-4-1c-1.8,0-3,0.3-4,1c0,0-1-3-6-3c0,0,0,3.6,4,5v2c0,0-2.4-0.6-4,1c0,0,0.4,2.5,4,2c1-0.1,1.5,2.8,0,4
	c-0.9,0.7-2.7,0.7-4-2c0,0-0.3,4.3,4,4c0,0,0,4,6,4h0c6,0,6-4,6-4C22.2,18.3,22,14,22,14z M8,10c0-0.6,0.4-1,1-1c0.6,0,1,0.4,1,1
	c0,0.6-0.4,1-1,1C8.5,11,8,10.6,8,10z M10,20c-0.6,0-1-0.4-1-1s0.4-1,1-1c0.6,0,1,0.4,1,1S10.6,20,10,20z M14,20c-0.6,0-1-0.4-1-1
	s0.4-1,1-1c0.6,0,1,0.4,1,1S14.6,20,14,20z M15,11c-0.6,0-1-0.4-1-1c0-0.6,0.4-1,1-1c0.6,0,1,0.4,1,1C16,10.6,15.6,11,15,11z"/>
</svg>
